img/AP-Logo-straight.svg

<?xml version="1.0" standalone="no"?>
<!DOCTYPE svg PUBLIC "-//W3C//DTD SVG 1.1//EN" "http://www.w3.org/Graphics/SVG/1.1/DTD/svg11.dtd">
<svg width="800px" height="450px" version="1.1" xmlns="http://www.w3.org/2000/svg" xmlns:xlink="http://www.w3.org/1999/xlink" xml:space="preserve" style="fill-rule:evenodd;clip-rule:evenodd;stroke-linejoin:round;stroke-miterlimit:1.41421;">
    <g>
        <g>
            <path d="M539.04,178.613L540.015,279.506L629.913,279.506C741.273,285.002 718.87,187.707 718.87,141.713C718.87,92.4033 687.15,67.7486 623.711,67.7486L539.746,67.7486ZM460.259,279.595L459.893,67.9509L266.431,279.595ZM460.287,347.344L200.599,347.344L95.0385,450L1.42109e-14,450L429.121,7.08536e-17L642.483,7.08536e-17C690.387,1.0892e-13 728.364,12.7417 756.416,38.2251C784.467,63.7086 798.493,97.7898 798.493,140.47C798.493,185.221 812.55,265 754.797,311.826C725.667,335.444 683.266,347.254 627.595,347.254L540.015,347.254L540.015,450L460.287,450Z" style="fill:black;"/>
        </g>
    </g>
</svg>

<svg width="800" height="450" xmlns="http://www.w3.org/2000/svg" fill-rule="evenodd" clip-rule="evenodd" stroke-linejoin="round" stroke-miterlimit="1.414"><path d="M539.04 178.613l.975 100.893h89.898c111.36 5.496 88.957-91.799 88.957-137.793 0-49.31-31.72-73.964-95.159-73.964h-83.965zm-78.781 100.982l-.366-211.644-193.462 211.644zm.028 67.749H200.599L95.039 450H0L429.121 0h213.362c47.904 0 85.881 12.742 113.933 38.225 28.051 25.484 42.077 59.565 42.077 102.245 0 44.751 14.057 124.53-43.696 171.356-29.13 23.618-71.531 35.428-127.202 35.428h-87.58V450h-79.728z"/></svg>
